X:1
T:Ballade No. 3 in A-Flat Major
T:Ballade No. 3 in A-Flat Major
T:Frédérick Chopin
C:Frederick Chopin
%%score { ( 1 3 ) | ( 2 4 5 ) }
L:1/8
Q:1/4=112
M:6/8
K:Ab
V:1 treble nm="Piano" snm="Pno."
V:3 treble 
V:2 bass 
V:4 bass 
V:5 bass 
V:1
"^Allegretto"!p! E2 F [EG][EA][EB] | [Ec]2[Q:1/4=72]"^ten."!pp! [FAf] [EAe-]3 | %2
[Q:1/4=112] e6-[Q:1/4=92]!pp! | e6 |[Q:1/4=112] E6- | [A,E]2[Q:1/4=72] [A,=B,=D] [A,CE]3- | %6
 [A,CE]!p![Q:1/4=92]!<(!A!mp!B c2!<)!!mf! B |!>(! c2!p![Q:1/4=72] A!>)!!p! A2 z | %8
!f![Q:1/4=92] [aa']3 z z2 |!mf! [Aa]3 z z/[Q:1/4=112] [Cc]/[Ff] | %10
 z z/!p! [Ee]/[Ee] z z/ [Ee]/[Ee] | z z/!p! [Ee]/[Ee] z z/ [Ee]/[Ee] |!f! [aa']3 z2 z | %13
!mf! [Aa]3[Q:1/4=112] (8:6:9z/!<(! [Cc]/[Dd]/[=D=d]/[Ee]/[=E=e]/!<)!!ff![Gg]/z/4!f![Ff]/4 | %14
!mf!!>(! [Ff]>!mp![Ee]!p![Ee]!>)! z z/ [Ee]/[Ee]- | [Ee]>[Ee][Ee] z z/ [Ee]/[Ee]- | %16
 [Ee]>A[Ff]- [Ff]>[Ee][=D=d] | z z/ _d/[_DGd] z z/ [CAc]/!mp![DAd] | [CAc]>BB B3- | %19
 B3 z z/!<(! [G,DE]/!mf![G,DE]!<)! | [A,CA] z/ [eae']/[eae']- [eae']>[=d=d'][aa'] | %21
 z z/ [_da_d']/[dad']- [dad']>[cac']{/[ea-e']}[dad'] | %22
 [cac']>[B=dab][Q:1/4=72]"^ten."[Bdab] b3-[Q:1/4=112] | b3 z z/ [Gde]/!mf![Gde] | %24
 [Aca] z/ [_g_g']/[gg'] [gg']3 |!mp!{/F_GA} TG3 F/=G/c/f/f' | [bb'] z/ [Aa]/[Aa] [Aa]3 | %27
{/GA_B} TA3 G/=B/=d/g/g' |!f! [c'c''] z TA G/=B/=d/g/g' | [c'c''] z!mf! TA G/=B/=d/g/g' | %30
!8va(! [=e'c''=e'']!8va)! z!mp! T=A/4=B/4A/4B/4 G/c/=d/g/g' | %31
!8va(! [=e'c''=e'']!8va)! z!mp! T=A/4=B/4A/4B/4 G/c/=d/g/g' | %32
!p!!8va(! [=e'c''=e'']!8va)! =E/[G=d]/c/G/ [cf]/=e/c/[e=a]/g/e/ | %33
!<(! [g=d']/c'/g/[c'f']/=e'/c'/!8va(! [e'=a']/g'/e'/[g'=d'']/c''/g'/!<)! | %34
!ff! [c''f'']/!>(!=e''/c''/g'/!8va)!=e'/c'/ g/=e/c/G/C/!p![I:staff +1]G,/!>)! | %35
[Q:1/4=72][I:staff -1] z6[Q:1/4=112] |!p![Q:1/4=112] E2 F [EG][EA][EB] | %37
 [Ec]2!pp![Q:1/4=72] [FAf] [EAe-]3 |[Q:1/4=112] e6-[Q:1/4=92]!pp! | e6 |[Q:1/4=112] E6- | %41
!mp! E[Q:1/4=118]!<(! [EF]2- F3- | F[Q:1/4=124] [_G-B]2 A3- | A[Q:1/4=130] [A-c]2 B3!<)! | %44
[Q:1/4=112]!f! [EGe]2 [FBf] [Geg][Aea][Beb] | %45
 [cec']2!mf!!>(! [faf']!mp! [eae']2!>)!!p!!8va(! [f'a'f''] | [e'a'e'']2!8va)! z z2 z | %47
[K:bass] z!p! A,,B,,[Q:1/4=92] C,2 B,, |[Q:1/4=72] C,2!pp! A,, z2 z | %49
[K:treble][Q:1/4=104]!pp! [aa']6- | [aa']6- | [aa'] z!pp! c'c z c' |c z c'c z c' | %53
c z!p! [B=a]c z!p! [Bg] |c z!p! [=A-f]{/g} [Af][G=e][F=d] | G z!p! [F=e]!pp!G z!p! [F=d] | %56
!pp!G z!p! [=E-c]{/=d} [Ec]!pp![F=B][Ec]- | [Ec] z!p! [B=a]!pp!c z!p! [Bg] | %58
!pp!c z!p! [=A-f]{/g} [Af][Q:1/4=80]!pp![G=e][F=d] | G z[Q:1/4=104]!p! [F=e]!pp!G z!p! [F=d] | %60
!pp! G z!p! [=E-c]{/=d} [Ec]!pp![F=B][Ec]- |!pp! [Ec] z!p! [=E-c]{/=d} [Ec][F=B][Ec]- | %62
 [Ec] z[Q:1/4=106]!<(! c2 z c |c z[Q:1/4=112] c3!<)! c- | c2 c z2!mp! [A-f] |{/g} fed cAB | %66
 c z [FAc] z2 [EAc-] | c>c[EAd] ez/!<(![EA]/!mf![DGB]!<)! |!f! [CAc] z [=EBc] z2 [FAc-] | %69
 c2 [Af]{/g} fe[Bd] |!f! [Ac]!>(![Gc][FA=d] [EG] z [CEG] | %71
 [CEG]2 [CEG]!>)!!p![Q:1/4=92]"_ten." [C=DG]2 [=B,DG] |!pp! [C=EG] z[Q:1/4=112] [Bcg] z2 [Acf] | %73
 z2 [G-B-_e]{/f} [GBe]A[Fd] | [=Ec] z [Bcg]3 [Acf]- | [Acf]2 [G-B-_e]{/f} [GBe]A[Fd] | %76
 [=Ec] z!<(! [cc']3 [c=dc']- | [cdc']2 [cfc']3 [c=ec']- | [cec']2 [c=dc']3 [c=ec']- | %79
 [cec']2 [cac']3 [cgc']!<)! |!ff! [cgc']2 [cfc']2 z [ff'] | %81
{/[gg']} [ff'][_e_e'][dbd'] [cac'][Afa][Bgb] | [cac'] z [cac'] z2 [cac'] | %83
 [cac']z/[cac']/[dad'] [eae']z/[Aea]/[Beb] | [cec'] z [c=ebc'] z2 [cfac']- | %85
 [cfac'] z!f!{/[gg']} [faf'] [faf'][_fa_f'][eae'] | [=da=d'] z/ [_da_d']/[cac'] [cac'][Gcg][Bcb] | %87
 [Aca] z!fff! A-!>(! AG_G!>)! |!f! [F,F]2 z z [=G,=G][B,B] | [A,A] z!>(! A- A=G_G!>)! | %90
!mf! F2[K:bass]!>(! F- F=EG | F z [DF]- [DF][C_E][B,D]!>)! |!mp! C z!>(! F- FED | %93
 C z[Q:1/4=92]"^ten." [DF]- [DF][C_E][_B,D]!>)! | %94
!p! [=E,C]2[Q:1/4=112]!<(! [F,C=D] [A,CF]2 [G,C=E] | [C=D]2 [C=E] [EA]2 [EG] | %96
[K:treble] [=Ec]2 [Fc=d] [Acf]2 [Gc=e] | %97
 [Fc=d]2 [Gc=e]!<)!!f![Q:1/4=92]"^ten."!>(!{/[Gce]} [cea]2 [Bcg]!>)! | %98
!mp! [Acf] z z!mf![Q:1/4=104] [A,A-]3 | AG!mf!F E!mp![Q:1/4=92]cB | A z z[Q:1/4=104] c3- | %101
 c=B=A G[Q:1/4=92]=e=d | c z!p![Q:1/4=104] c'c z c' |c z c'c z c' |c z!p! [B=a]!pp!c z!p! [Bg] | %105
!pp! c z!p! [=A-f]{/g} [Af]!pp![G=e][F=d] | G z!p! [F=e]!pp!G z!p! [F=d] | %107
!pp!G z!p! [=E-c]{/=d} [Ec]!pp![F=B][Ec]- | [Ec] z!p! [B=a]!pp!c z!p! [Bg] | %109
!pp!c z!p! [=A-f]{/g} [Af]!pp![G=e][F=d] | G z!p! [F=e]!pp!G z!p! [F=d] | %111
!pp!G z!p! [=E-c]{/=d} [Ec]!pp![F=B][Ec]- |!pp! [Ec] z!p! [=E-c]{/=d} [Ec][F=B][Ec]- | %113
 [Ec] z [=Ec]2 z!pp![Q:1/4=96]"^rit." [Ec]- | [Ec] z[Q:1/4=80] [=Ec]2 z[Q:1/4=36]"^ten." [Ec] | %115
[Q:1/4=112]!p!{/_Ecc} c'3- c'/b/a/g/a/_f/ | =d/=f/e/c/A/F/ E2 [_DG] | %117
{/CEAceac'} c''3- c''/a'/g'/f'/g'/_f'/ | =d'/=f'/e'/c'/a/f/ e/c/A/F/C/=D/ | %119
{/EG} g3- g/f/e/=d/e/_c/ | =A/=c/B/G/E/C/ B,2 [_A,=D] |{/G,B,EGBeg} g'3- g'/f'/e'/=d'/e'/_c'/ | %122
 =a/=c'/b/g/=d/e/ =e/g/f/_d/B/F/ | E/A/c/e/g/f/ e/c/d/=A/B/F/ | E/A/c/e/g/f/ e/c/d/=A/B/d/ | %125
!<(! C/D/E/F/G/A/ B/c/d/e/f/_g/!<)! |!ff! c'/!>(!b/a/b/a/_g/ a/g/f/g/f/=e/!>)! | %127
!mf! f/_g/=g/a/c'/b/ a/f/_g/=d/e/B/ | A/d/f/a/c'/b/!>(! a/f/_g/=d/e/_G/!>)! | %129
!mp! F/!<(!=G/A/B/c/d/ e/=e/f/=g/g/b/ | c'/d'/e'/=e'/f'/g'/!8va(! =a'/b'/c''/d''/e''/=e''/!<)! | %131
!ff! f''/!>(!=e''/_e''/d''/c''/b'/ a'/g'/f'/=e'/_e'/d'/!8va)! | c'/b/a/g/f/=e/ _e/d/c/e/d/F/!>)! | %133
!mp! TB2 =A/B/ Tc2 B/c/ | Td2 c/d/!<(! T=e^d/e/g/f/!<)! |!f!{/_e} [Ee]3!>(! [Aa][Gg][Ff]!>)! | %136
!mp! [Ede]3!f! [Aa]!>(![Gg][Ff]!>)! |!mp! [Ede]2!f! [df]3 [ce] | d!<(!cB c2 d | %139
 [DAd] z!<)!!f!!8va(! [aa']- [aa'][gg'][ff'] | [ed'e']!8va)!!<(! [cc'][Bb] [Aa][Gg][Ff]!<)! | %141
 [Ede]!>(! [df]2- [df]2 [ce]!>)!!ff! |!mp!{/e} dcB [DGc]2 [DE] |!p! [CA] z aA z a |A z aA z a | %145
A z [_Gf]!pp!A z!p! [Ge] |!pp!A z!p! [Fd]{/e} [Fd][Ec][DB] |[K:Ab] [DE] z!p! [Dc]E!pp! z!p! [DB] | %148
!pp!E z!p! [C-A]{/B} [CA]!pp![DG][CA]- | [CA] z [_Gf]A z [Ge] |A z [F-d]{/e} [Fd][Ec][DB] | %151
 [DE] z [Dc]E z [DB] |!pp! E z!p! [C-A]{/B} [CA]!pp![DG][CA]- | %153
!pp! [CA] z!p! [C-A]{/B} [CA]!pp![DG][CA]- | [CA] z A2 z!p![Q:1/4=92]"^rit." A | %155
A z A2 z!p![Q:1/4=80] A ||[K:E]!pp! G[Q:1/4=112]"^a tempo" z G- G2 c- | cBA GEF | G z G- G2 G- | %159
 GG=A BEF | G z G z z G- | G2 c- c=BA | GGA B z e |d z d- d z d | %164
!pp!!<(! g/G/g/g/g'/g/ g/G/g/g/g'/g/ | g/G/g/g/g'/g/ g/G/g/g/g'/g/ | g/G/g/g/g'/g/ g/G/g/g/g'/g/ | %167
 g/G/g/g/g'/g/ g/G/g/g/g'/!mp!g/!<)! | g/G/g/g/g'/g/ g/G/g/g/g'/g/ | g/G/g/g/g'/g/ g/G/g/g/g'/g/ | %170
!mp! g/!<(!G/g/g/g'/g/ g/G/g/g/g'/g/ | g/G/g/g/g'/g/ g/G/g/g/g'/g/!<)! | %172
!ff! [ceg]/G/[ceg]/g/[c'e'g']/g/ [ceg]/G/[ceg]/!8va(!c'/[e'c'']/c'/ | %173
 [a'c'']/c'/[g'b']/b/[f'a']/a/ [e'g']/g/!8va)![c'e']/e/[d'f']/f/ | %174
 [c'e'g']/g/[ceg]/B/[eg]/g/ [e'g']/g/[eg]/G/[eg]/g/ | %175
 [e'g']/g/[eg]/G/[fa]/A/ [gb]/B/[Ge]/E/[Af]/F/ | %176
 [Beg]/G/[Beg]/g/[be'g']/g/ [^Beg]/G/[Beg]/g/[^be'g']/g/ | %177
 [ceg]/G/[ceg]/!8va(!c'/[e'c'']/c'/ [a'c'']/c'/[g'=b']/b/[f'a']/a/ | %178
 [e'g']/g/[e'g']/g/[e'^a']/^a/ [e'b']/b/[d'f']/f/[=d'g']/g/ | %179
 [=d'=a']/a/[c'e']/e/[c'f']/f/ [c'g']/g/[^b^d']/d/[=b^e']/^e/!8va)! | %180
 [bf']/f/[^ac']/c/[=ad']/d/ [ae']/e/[gb]/B/[gc']/c/ | %181
 [gd']/d/[^^f^a]/^A/[^f^b]/^B/ [fc']/c/[^eg]/G/[=e^a]/A/ | [=Bd=b] z B,2 z B, |!mp!B, z B,2 z B, | %184
!mp!B, z [=A,DG]B, z [A,DF]!mp! |B, z[K:bass] E EDC- | C2!mp! D- D2 C- | C2 B,- B,3- | %188
 B,2[K:treble] C [A,D]EF!p! | [E^G]2 c{/^A,} !arpeggio![A,Ec]3- | [A,Ec]2 [B,EB]- [B,EB]2 [CE^A] | %191
 [Cc]2 [B,B] z z =C- |C z [_B,=A]=C z [B,=G] ||[K:Ab] C z[K:bass]!mp! F F=E=D- | %194
 D2!p! [C=E]- [CE]2 [=B,=D]- | [B,D]2!p![Q:1/4=92] C- C3- |!p! C2[K:treble][Q:1/4=112] =D =EFG | %197
 =A2 =d{/=B,} !arpeggio![B,=Fd]3- | [B,Fd]2 [CFc]- [CFc]2 [_DF=B] | [F=B]2 [=Ec] z2 =D- | %200
 D z [^F_B]=D z [F=A] |=D z{/=A} [B,-D-G] [B,DG][Q:1/4=92][=A,C=F][G,B,_E] | %202
 [^F,=C=D]2[Q:1/4=112] [G,C-=E] [=A,C^F][B,DG][CF=A] | [B,GB]2 [_E=c_e] [=DB=d]2 [_DG_d]- | %204
 [DGd]2 [DGc]- [DGc]2 [DGB]- | [DGB]2 [C-A]{/B} [CEA][B,DG]>[A,DF] | %206
 [G,DE]2!mp! [A,D-F] [B,DEG][CE-A]>[DEGB] | [CAc]2 [Fdf] [Ece]2 [=D_c=d]- | %208
 [Dcd]2 [E=ce] [_F_d_f][=F=d=f][_Ge_g] | [=G=e=g]2 [Afa] [__B_g__b][_B=g_b]>[_ca_c'] | %210
 [_ca_c'] [=F=d=f][_G=d=f] [=G=e=g][Afa][__B_g__b] | %211
 [_B=g_b][_ca_c'][=ca=c'] [^ca^c'][=da=d'][faf'] |!8va(! [ee']2 [ff'] [gd'e'g'][aa'][bb'] | %213
 [c'c'']2 [f'f''] [e'e'']2 [=d'=d''] | g'3- x x2 | [c'a'c''][aa'][=f=f']!8va)! [ee'][cc']z/[Ff]/ | %216
 [Ee]2 f [Gdeg][Adea][Bdeb] | [cc']2!ff! [ff'] [ee']2 [=d=d'] |!f! g3- x!<(! x2 | %219
 [=Bg=b][c_ac'][ff']!<)!!ff! [ee']2!>(! [=d=d'] | g3- x!>)!!f! x2 | %221
 [Bgb][_c_a_c']z/!8va(!!<(![ac'a']/ [ac'a']!<)!!ff![ac'a'][ac'a'] | %222
!>(! [a_c'a']!>)![gbg']!8va)!z/[Bgb]/!<(! [=A^f=a][Bgb]z/!<)!!ff![gbg']/ | %223
!>(! [gbg']!>)!!f![^f=a^f']z/[=Afa]/!<(! [^G^e^g][Afa]z/!<)!!ff![faf']/ | %224
 [^f=a^f'] z/!f! [=A=B^da]/!<(![ABda][Q:1/4=94]"^allargando" [ABda][ABd=b][ABdf] | %225
 [=A=B^d^f][^G=e^g][G^dg]!<)! !>![G=dg]!>![^Ad^a]!>![Bd=b] | %226
 [c_e_ac']!p![Q:1/4=104]"^stretto" [EAce][EAce] [EAce][=EAc=e][EAce] | %227
 [=EAc=e]!<(![F=Acf][FAcf] [FAcf][Q:1/4=112][^FAc^f][FAcf]!<)! | %228
 [^Fce^f][G_deg][Gdeg] [Gdeg][_Ad_a][Ada] | %229
 [Ada][dfc'][Q:1/4=94]"^poco rit."[dfc'] [dfc'][deb][deb] | %230
[Q:1/4=132]"^Più mosso."{/CEAc} !>!c'3- c'/b/a/g/a/_f/ | =d/=f/e/c/A/F/ !>!E2 [_DG] | %232
{/CEAc} !>!c'3- c'/b/a/g/a/_f/ | =d/=f/e/c/A/F/ !>!E2 [_DG] | %234
 C/E/A/c/!>!c'!f!!<(!{/=def} Te2!<)!!ff! _d/e/ | %235
 c/e/a/c'/!>!c''!f!!<(!{/=d'e'f'} Te'2!<)!!ff! _d'/e'/ | %236
 c'!8va(!f''/e''/c''/a'/!8va)! f'/e'/c'/a/f/e/ | c/A/F/E/C/A,/ z z2 | z2 z !>![C=EBc]3 | %239
 !>![CFAc]3 !>![D_EGd_e]3 | !>![Aca]6 |] %241
V:2
 z2 =D _DCG, | A,2 [E,=B,=D] [E,C]3 |!p! _DC_B, PB,=A,B, | C_A,>E, E,3 | E,,2!mf! F,, G,,A,,B,, | %5
 C,2!p! F, E,3- | E,3- E,2 [DE] | [EA]2 [CE] [CE]2 z | %8
!ped! [A,,,A,,] z[K:treble]!mf!!>(! [_GAe]!ped-up!!mp! [FA=d]2!>)! z | %9
[K:bass]!ped! [A,,,A,,] z!mp! [_F,A,D]!ped-up!!p! [E,A,C]2 z | %10
!mp!!ped! [E,,,E,,] z [E,C]!ped-up! [=D,F,=B,]2 z |!mp!!ped! E,,z[=D,F,=B,]!ped-up! [_D,G,_B,]2 z | %12
!ped! [A,,,A,,] z/[K:treble] [_GAe]/[GAe]!ped-up! [FA=d]2 z | %13
[K:bass]!ped! [A,,,A,,] z/ [_F,A,D]/[F,A,D]!ped-up! [E,A,C]2 z | %14
!mf!!ped! [E,,,E,,] z!p! [E,C]!ped-up! [=D,F,=B,]2 z | %15
!mp!!ped! E,, z!p! [=D,F,=B,]!ped-up! [_D,G,_B,]2 z | %16
!mp!!ped! [A,,,A,,]z!p![C,_G,A,]!ped-up! [=B,,F,A,]3 | %17
!mp!"^poco cresc."!ped! [A,,,A,,]z[A,,E,_B,]!ped-up! [A,,E,A,]3 | %18
!ped! [F,,,F,,] z!ped-up! [=G,,=G,] [F,,F,]2 z | %19
!mp!"^dim."!ped! [E,,,E,,] z!ped-up! [F,,F,]!mp! [E,,E,]2 z | %20
!f!!ped! [A,,,A,,] z/ [_G,A,_G]/[G,A,G]!ped-up! [F,A,F]2 z | %21
!ped! [A,,,A,,] z/ [_F,A,_F]/[F,A,F]!ped-up! [E,A,E]2 z | %22
!ped! [F,,,F,,] z/ [G,G]/[G,G]!ped-up! [F,F]2 z | %23
"^dim."!ped! [E,,,E,,] z/ [F,F]/[F,F]!ped-up! [E,E]2 z | %24
!ped! [A,,,A,,] z/ [_G,_G]/[G,G]!ped-up!!ped! [G,G]3 | %25
 [B,CE]3!ped-up!!ped! E/C/=A,/F,/F,,!ped-up! | %26
"^cresc."!ped! [B,,,B,,] z/ [A,=DF]/[A,DF]!ped-up!!ped! [A,DF] z/!mf! [=B,,,=B,,]/[B,,,B,,] | %27
 [=B,,,=B,,]3!ped-up!!ped! F/=D/=B,/G,/G,,!ped-up! | %28
!ped! [C,,C,] z [G,=E]!ped-up!!ped! F/=D/=B,/G,/G,,!ped-up! | %29
"^dimin."!ped! [C,,C,] z [G,=E]!ped-up!!ped! F/=D/=B,/G,/G,,!ped-up! | %30
!ped! [C,,C,] z [G,=E]!ped-up!!ped! F/=D/=B,/G,/G,,!ped-up! | %31
!ped! [C,,C,] z [G,=E]!ped-up!!ped! F/=D/=B,/G,/G,,!ped-up! | %32
!ped! [C,,C,] z z !arpeggio![C,G,=E]3- | [C,G,E]3!ped-up! F2!ped! =E | [C,=E,C]2 z4 | %35
!p! [C,,,C,,]3!ped-up! [C,,,C,,][_D,,,_D,,][=D,,,=D,,] | [E,,,E,,] z =D _DCG, | %37
 A,2 [E,=B,=D] [E,C]3 |!p! _DC_B, PB,=A,B, | C_A,>E, E,3 | E,,2!mf! F,, G,,A,,B,, | %41
 C, F,,G,, =A,,B,,C, | D,"^cresc." _A,,B,, C,D,E, | F, B,,C, =D,E,F, | x2 =D [_DE][CE][G,E] | %45
!ped! [A,E]2[K:treble] [E=B=d]!ped-up! [Ec]2 [e=b=d'] | [ec']2 z[K:bass]!pp!!ped! [E,,,E,,]3- | %47
 [E,,,E,,]!ped-up!A,,,B,,, C,,2 B,,, | C,,2 A,,,!p!!ped! [A,,,A,,]3 |[K:treble] [CEAc]6- | %50
 [CEAc]6- | [CEAc] z!ped-up!"^mezza voce" z4 | z6 | %53
[K:bass]!ped! C,, z [G,CF]C,!ped-up! z!ped! [G,C=E] |F,!ped-up! z!ped! [CF]=D, z [=A,C] | %55
!mp! G,,!ped-up! z!p!!ped! [=D,G,C]G,,!ped-up! z [G,=B,] |!ped!C,, z [G,C]-!ped-up! C3 | %57
!ped! [G,C] z [G,CF]C,!ped-up! z [G,C=E] |F,!ped! z [CF]=D,!ped-up! z [=A,C] | %59
G,,!ped! z [=D,G,C]G,,!ped-up! z [G,=B,] |!ped! C,, z [G,C]-!ped-up! C3 | %61
!ped! [G,C] z [G,C]-!ped-up! C3 |!ped! C, z"^cresc." [G,C]!ped-up!!ped! C,2 [A,C] | %63
 C,2 [A,=D]!ped-up!!ped! C,2 [B,C]!ped-up! |!mf!!ped! F,, z [C,A,C]F,,!ped-up! z!ped! [F,CF] | %65
 F,, z [F,DF]F,,!ped-up!!ped! z [F,C] |[F,,F,]!ped-up! z [_F,,_F,]E,,!ped! z [E,C] | %67
E,, z!ped-up! [E,C]!ped!E,, z/ [E,C]/!ped-up![E,-B,] | %68
!ped! [A,,E,A,] z!ped-up! [G,,G,]!ff!F,,!ped! z!f! [C,A,C] | %69
!ff!F,,!ped-up! z!ped! [F,CF]!ff!F,,!f! z!ped-up! [F,DF] |!ped! [F,CF] C2!ped-up!!ped! x x2 | %71
!ped! E,.=D,C,!ped! G,,3!ped-up! |!ped! C,, z!ped-up! [B,CG] C, z!ped-up!!ped! [A,CF] | %73
 C, z!ped-up!!ped! [G,B,_E] C, z [F,A,D] | C,!ped-up!!ped! z [B,CG] C, z!ped-up!!ped! [A,CF] | %75
 C, z!ped-up!!ped! [G,B,_E]C, z [F,A,D] | %76
C, z!ped-up!!ped! [E,C]"^crescendo"C, z!ped-up!!ped! [F,C=D] | %77
C, z!ped-up!!ped! [A,CF]C, z!ped-up!!ped! [G,C=E] | %78
C, z!ped-up!!ped! [F,C=D]C, z!ped-up!!ped! [G,C=E] |C, z!ped-up!!ped! [B,CA][C,,C,] z [G,B,CG] | %80
!ped! [F,,,F,,]z[F,A,CF] [F,,F,]!ped-up!z[F,A,CF] | %81
!ped! [F,,F,]z[F,B,DF]!ped-up!!ped! [F,,F,]z[C,C]!ped-up! | %82
!ped! [F,,F,]z[_F,,_F,]!ped-up!!ped! [E,,E,]z[E,A,CE]!ped-up! | %83
 [E,,E,]z/[A,CF]/[E,A,CE]!ped-up!!ped! [E,,E,]z/[E,CE]/[E,G,DE] | %84
!ped! [A,,A,]z[G,,G,]!ped-up!!ped! [F,,F,]z!ped-up![C,F,A,C] | %85
 [F,,,F,,] z [F,A,F]{/[G,G]} [F,A,F][_F,A,_F][E,A,E] | %86
 [=D,A,=D] z/ [_D,A,_D]/[C,A,C] [C,A,C][G,,C,G,][B,,C,B,] | %87
 [A,,C,A,] z!ped! [A,,,A,,]- [A,,,A,,]3!ped-up! | [D,,D,]2 z z2 z | %89
 z2!ped! [A,,,A,,]- [A,,,A,,]3!ped-up! | [D,,D,]2!ped! [=G,,,=G,,]- [G,,,G,,]3!ped-up! | %91
 [G,,,G,,]- z [G,,,G,,] [G,,,G,,][A,,,A,,][B,,,B,,] | %92
 [C,,C,] z!ped! [G,,,G,,]- [G,,,G,,]3!ped-up! | [C,,G,,] z!ped! G,,- G,,3!ped-up! | C,,3- C,3 | %95
 F,2 G, C2 B, | [C,G,B,C]2 [C,G,B,=D] [C,G,B,F]2 [C,G,B,=E] | %97
 [C,F,B,=D]2 [C,G,B,=E] [C,B,CA]2 [B,CG] |!ped! [F,CF] z z z2!ped-up!!mp! [_F,,_F,] | %99
!ped![I:staff -1] [CE]!mp![I:staff +1]_B,!ped-up!A, G,!p!F,G, |!mp! x3!p! =D2 E | E=DC =B,=A,B, | %102
!ped! C z z!ped-up! z2 z | z6 |[K:bass]!pp!!ped! C,, z [G,CF]C, z [G,C=E]!ped-up! | %105
 F,!ped! z [CF]=D,!ped-up! z [=A,C] |G,,!ped! z [=D,G,C]G,, z!ped-up! [G,=B,] | %107
!ped!C,, z [G,C]- C3!ped-up! |!ped! [G,C] z!pp! [G,=D]!ped-up!C, z [G,=E] | %109
F,!ped! z [CF]=D,!ped-up! z [C=A] | G,,!ped! z [=D,=A,]G,,!ped-up! z [D,=B,] | %111
!ped!C,, z [G,C]- C3!ped-up! |!ped! [G,C] z [G,C]-!ped-up! C3 | [G,C]2"^dim." [G,C] C,2 [G,C] | %114
 C,2 [G,C] C,2 [G,C] |!p!!ped! A,, z!pp! [E,A,E]!ped-up! [_F,A,_F]3 | %116
!mp!!ped! A,,, z!pp! E,- C2 B,!ped-up! | %117
!mp!!ped! A,, z!pp! !arpeggio![E,CA]!ped-up!!ped! !arpeggio![_F,CA]3!ped-up! | %118
!ped!!p! A,, z!pp! F, [F,C]2 [B,,A,]!ped-up! | %119
!mp!!ped! E,, z!pp! !arpeggio![B,,G,E]!ped-up!!ped! !arpeggio![_C,G,E]3!ped-up! | %120
!mp!!ped! E,,, z!pp! B,,- G,2 F,!ped-up! | %121
!mp!!ped! E,, z!pp! !arpeggio![E,B,B]!ped-up!!ped! !arpeggio![E,_C_c]3!ped-up! | %122
!mp!!ped! E,, z!pp! E,[K:treble] !arpeggio![B,EGd]2 z!ped-up! | %123
[K:bass]!ped!!p! A,,!pp! [E,CE]2!ped-up!!p!!ped! B,,!pp! [E,G,E]2!ped-up! | %124
!ped!!p! C,!pp! [E,A,E]2!ped-up!!p!!ped! G,,!pp! [E,B,E]2!ped-up! | %125
!ped!!p! A,, z z _G2 =D!ped-up! |!mp! E3 =E3 | %127
!ped!!mp! D, [A,FA]2!ped-up!!ped! E, [A,CA]2!ped-up! | %128
!ped! F, [A,DA]2!ped-up!!ped! C,!p! [A,EA]2!ped-up! |!ped!!mp! D,, z z[K:treble] [FA]3!ped-up! | %130
!mf! [FA]6 |[K:bass]!f!!ped! D, z[K:treble] [FAB] [FAB] z/!mf! [FAc]/!ped-up![ABd] | %132
 [ABd]2 [A,B,DF]!mp! [A,B,DF]2 z | %133
[K:bass]!mf!"^cresc."!ped! [D,,D,]!mp! [B,F]F,!mf!!ped-up!!ped! C,!mp! [=A,E]F,!ped-up! | %134
!mf!!ped! B,,!mp! [B,D]F,!mf!!ped-up!!ped! D,!mp! [B,F]A,!ped-up! | %135
!ped! E,,/B,,/E,/G,/E,/B,,/!ped! F,,/!ped-up!A,,/D,/A,/D,/A,,/!ped-up! | %136
!ped! G,,/D,/E,/B,/E,/D,/!ped! F,,/!ped-up!A,,/D,/A,/D,/A,,/!ped-up! | %137
!ped! G,,/D,/E,/B,/E,/!>(!D,/!ped-up!!ped! =A,,/E,/F,/C/F,/E,/!ped-up!!>)! | %138
!mp!!ped! B,,/F,/A,/D/A,/F,/!ped-up!!ped! E,,/B,,/E,/G,/E,/B,,/!ped-up! | %139
!ped! F,,/A,,/D,/F,/A,/D/!ped-up!!ped! F/D/A,/F,/D,/A,,/!ped-up! | %140
!ped! G,,/D,/E,/D/E,/D,/!ped-up!!ped! F,,/D,/A,/D/A,/D,/!ped-up! | %141
!ped! G,,/E,/B,/D/B,/E,/!ped-up!!ped! =A,,/E,/F,/C/F,/E,/!ped-up! | %142
!ped! B,,/!>(!F,/A,/D/A,/F,/!ped-up!!ped! x2 E,-!ped-up!!>)! |!ped! [E,A,] z z z2 z!ped-up! | z6 | %145
!mp!!ped! A,,, z!p! [E,A,D] A,, z!ped-up!!ped! [E,A,C] | D, z!ped-up!!ped! [A,D] B,, z [F,A,] | %147
[K:Ab] E,, z [E,A,]E,, z [E,=G,] |!ped!A,,,!ped-up! z [E,A,]- A,3 | %149
!ped! [E,A,] z [E,B,]!ped-up!A,, z [E,C] |!ped!D, z [A,D]B,,!ped-up! z [A,F] | %151
!ped!E,, z [B,,F,]!ped-up!!ped!E,,!ped-up! z [B,,=G,] |!ped! A,,, z [E,A,]- A,3!ped-up! | %153
!ped! [E,A,] z [E,A,]- A,3!ped-up! |!ped! A,,2!p! [E,A,]!ped-up!!ped! A,,2!ped-up! [_F,A,] | %155
 A,,2 [_F,B,]!ped-up!!ped! A,,2 _G, || %156
[K:E]!pp! C,,"_legato" ^B,,,/"^mezza voce"C,,/F,,/E,,/ D,,/E,,/A,,/G,,/^^F,,/G,,/ | %157
 D,/C,/^B,,/C,/^^C,/D,/ E,/^E,/F,/^^F,/G,/A,/ | [C,G,] ^B,/C/D/C/ =B,/=C/=D/C/D/C/ | %159
 ^A,/B,/^C/B,/C/B,/ B,,C,/B,,/C,/B,,/ | E,,A,,/G,,/D,,/G,,/ C,,/G,,/^^F,,/G,,/D,/C,/ | %161
 ^B,,/C,/F,/E,/D,/E,/ A,/G,/^^F,/G,/D/C/ | ^B,/C/^^C/D/F/E/ C/D/E/D/^C/G,/ | %163
 ^A,/B,/C/B,/G,/B,,/ D,E,/D,/E,/D,/ | %164
!ped!!p!!<(! G,, z"^cresc." [F,G,D]- [F,G,D]2 [E,G,C]-!ped-up! | [E,G,C]2 [D,F,B,] A,E,F, | %166
!ped! [G,,^B,,G,] z [F,G,D]- [F,G,D]2!ped-up! [E,G,C]- | [E,G,C]2 [D,F,=B,] =A,E,!mf!F,!<)! | %168
!ped!!mp!!mf!!<(! [G,,,G,,] z [^B,,D,G,]- [B,,D,G,]2!ped-up! [C,E,^A,]- | %169
 [C,E,A,]2 [E,G,C]- [E,G,C]2!f!!ped-up!!ped! [D,G,^B,]!<)! | %170
!mf!"^molto cresc." G,,2!ped-up!!ped! [C,G,^A,] G,,2!ped-up!!ped! [D,G,^B,] | %171
 G,,2!ped! [F,G,^B,E] [G,,,G,,]2!ped-up! [F,G,B,D] | %172
!ff!!ped! [C,,C,] z!ped-up! [E,G,C] [C,,C,] z[K:treble] [CEGc] | %173
[K:bass]!ped! [C,C] z[K:treble] [CFAc][K:bass]!ped-up!!ped! [C,C] z [G,CEG]!ped-up! | %174
!ped! [C,,C,]2 [E,G,CE]!ped-up!!ped! [=C,,=C,]2 [E,G,=CE]!ped-up! | %175
!ped! [B,,,B,,]2 [E,G,E]!ped-up!!ped! [B,,,B,,]2 [F,B,D]!ped-up! | %176
!ped! [E,,E,]2 [E,G,B,E]!ped-up!!ped! [D,,D,]2 [E,G,^B,E]!ped-up! | %177
!ped! [C,,C,] z[K:treble] !arpeggio![G,CEc][K:bass]!ped-up!!ped! [C,C] z[K:treble] !arpeggio![A,CFc]!ped-up! | %178
[K:bass]!ped! [C,C][K:treble][Ec][K:bass][F,F]!ped-up!!ped! [B,,B,][K:treble][DB][K:bass][E,E]!ped-up! | %179
!ped! [A,,A,][CA][^D,^D]!ped-up!!ped! [G,,G,][^B,G]!ped-up![C,C] | %180
!ped! [F,,F,][^A,F][B,,B,]!ped-up!!ped! [E,,E,][G,E]!ped-up![^A,,^A,] | %181
!ped! [D,,D,]!<(![^^F,D][G,,G,]!ped-up!!ped! [C,,C,][^E,C]!ped-up![^F,,^F,]!<)! | %182
!fff!!ped! [B,,,B,,] z z!mf! ^A,,,/B,,,/B,,/B,,,/!ped-up!B,,/B,,,/ | %183
!mf!!>(! ^A,,,/B,,,/B,,/B,,,/B,,/B,,,/ A,,,/B,,,/B,,/B,,,/B,,/B,,,/ | %184
 ^A,,,/B,,,/B,,/B,,,/!>)!!p!B,,/B,,,/ A,,,/B,,,/B,,/B,,,/B,,/B,,,/ | %185
 ^A,,,/B,,,/B,,/B,,,/B,,/B,,,/ A,,,/B,,,/B,,/B,,,/B,,/B,,,/ | %186
 ^A,,,/B,,,/B,,/B,,,/B,,/B,,,/ A,,,/B,,,/B,,/B,,,/B,,/B,,,/ | %187
 ^A,,,/B,,,/B,,/B,,,/B,,/B,,,/ A,,,/B,,,/B,,/B,,,/B,,/B,,,/ | %188
!ped! B,,,/F,,/F,/F,,/!ped-up!F,/F,,/!ped! B,,,/!ped-up!A,,/A,/A,,/A,/A,,/ | %189
!ped! B,,,/^G,,/^G,/G,,/G,/A,,/!ped-up!!ped! B,,,/=G,,/=G,/G,,/G,/G,,/!ped-up! | %190
 B,,,/=G,,/=G,/G,,/G,/!ped-up!G,,/!ped! B,,,/G,,/G,/G,,/G,/G,,/ | %191
!ped! B,,,/F,,/F,/^E,/=E,/D,/ =D,/C,/=C,/B,,/_B,,/=A,,/!ped-up! | %192
 _A,,/=G,,/^F,,/=F,,/E,,/_E,,/ =D,,/_D,,/=C,,/=B,,,/=D,,/C,,/ || %193
[K:Ab]!p! =B,,,/C,,/C,/C,,/C,/C,,/ B,,,/C,,/C,/C,,/C,/C,,/ | %194
 =B,,,/C,,/C,/C,,/"^dimin."C,/C,,/ B,,,/C,,/!pp!C,/C,,/C,/C,,/ | %195
 =B,,,/C,,/C,/C,,/C,/C,,/ B,,,/C,,/C,/C,,/C,/C,,/ | %196
!ped! C,,/G,,/G,/!ped-up!G,,/G,/G,,/!ped-up!!ped! C,,/B,,/B,/B,,/B,/B,,/ | %197
!ped! C,,/=A,,/=A,/A,,/A,/A,,/!ped-up!!ped! C,,/_A,,/_A,/A,,/A,/A,,/!ped-up! | %198
 C,,/A,,/A,/A,,/A,/A,,/!ped-up!!ped! C,,/A,,/A,/A,,/A,/A,,/ | %199
!ped! C,,/G,,/G,/^F,/=F,/=E,/ _E,/=D,/_D,/C,/=B,,/_B,,/!ped-up! | %200
 =A,,/_A,,/G,,/^F,,/=F,,/=E,,/ _E,,/=D,,/_D,,/D,,/E,,/D,,/ | %201
 ^C,,/=D,,/=D,/D,,/D,/D,,/ C,,/D,,/D,/D,,/D,/D,,/ | %202
!p! ^C,,/!<(!=D,,/=D,/D,,/D,/D,,/ C,,/D,,/D,/D,,/D,/D,,/ | %203
 ^C,,/=D,,/=D,/D,,/D,/D,,/!<)!!mp! x2 E,- | E, x2 =D,,/E,,/E,/E,,/E,/E,,/ | %205
 =D,,/E,,/E,/E,,/E,/E,,/ D,,/E,,/E,/E,,/E,/E,,/ | =D,,/E,,/E,/E,,/E,/E,,/ D,,/E,,/E,/E,,/E,/E,,/ | %207
 =D,,/E,,/E,/E,,/E,/E,,/ D,,/E,,/E,/E,,/E,/E,,/ | %208
!mf!!ped! E,,,/ A,/!ped-up!B,/_C/B,/A,/ E,/A,/B,/C/B,/A,/ | %209
!ped! E,,/ A,/B,/_C/!ped-up!B,/A,/ E,/A,/B,/C/B,/A,/ | %210
!ped! [E,,E,]/ A,/B,/_C/!ped-up!B,/A,/ E,/A,/B,/C/B,/A,/ | %211
!mf!!ped! [E,,E,]/!<(! A,/B,/_C/!ped-up!B,/!ped-up!A,/!ped! [E,=D]/A,/B,/C/B,/A,/!<)! | %212
!ff!!ped! [E,,E,][K:treble] [G,B,_DE][B,DEG] [DEGB][B,DEG][G,B,DE]!ped-up! | %213
[K:bass]!ped! [A,,,A,,][K:treble] [A,E][CA] [Ec][Ae][ca]!ped-up! | %214
[K:bass]!ped! [E,,E,] [E,D][G,E] [DG][G,E][E,D]!ped-up! | %215
!ped! [A,,A,] [E,C][A,E] [E,C][A,E]z/!f![C,C]/!ped-up! | %216
!>(! [C,C][B,,B,][A,,A,] [G,,G,][F,,F,]!>)!!mf![E,,E,] | %217
!ped! [A,,,A,,]!<(! [E,C][A,E]!<)!!f! [CA]2 z!ped-up! | %218
!ped! [E,,E,] [E,D][G,E] [DG][G,E]!ped-up![E,D] |!ped! [A,,A,] [E,C][A,E] [CA]2!ped-up! z | %220
!ped! [E,,E,] [E,D][G,E] [DG][G,E]!ped-up![E,D] | %221
!ped! [=D,,=D,] [D,_C][A,F] [CA]!ped-up![A,F][D,C] | %222
!ped! [_D,,_D,]!f! [D,B,][G,=E] [D,B,][G,E] z!ped-up! | %223
!ped! [C,,C,] [C,=A,][^F,_E] [C,A,][F,E]!ped-up! z | %224
!ped! [=B,,,=B,,] z/ [^F,=B,^F]/[F,B,F] [F,B,F][F,B,F]!ped-up![F,B,F] | %225
!ped! =E,, [=E,=B,=E][E,B,E] !>![E,B,E]!>![E,^A,E]!>![E,^G,E]!ped-up! | %226
!fff!!ped! [_E,,_E,] [E,C]!ped-up![E,C] [E,C][E,C][E,C] | %227
"^cresc."!p! [E,C][E,CE][E,CE] [E,CE][E,CE][E,CE] | %228
!mf!!ped!!<(! [E,,,E,,]!ped-up! [E,B,DE][E,B,DE] [E,B,DE]!ped-up!!ped![B,D=F][B,DF] | %229
 [B,DF][B,DFA][B,DFA] [B,DFA][B,EG][B,EG]!<)! | %230
!ff!!ped! [A,,,A,,] z [E,A,E]!ped-up!!ped! [_F,A,_F]3 |!ped! A,, z E, C2 B,!ped-up! | %232
!ff!!ped! [A,,,A,,] z !arpeggio![E,CA]!ped-up!!ped! !arpeggio![_F,CA]3!ped-up! | %233
!ped! A,, z E, C2 B,!ped-up! |!ped! A,,, z E, [CA]2!ped-up! z | %235
!ped! A,, z[K:treble] E [ca]2!ped-up! z |!ped! !arpeggio![A,Ec]2 z z2!ped-up! z | %237
[K:bass] z2 z F,/E,/C,/A,,/F,,/E,,/ | A,,,2 z !>![C,,C,]3 | !>![F,,F,]3 !>![E,,E,]3 | %240
 !>![A,,,A,,]6 |] %241
V:3
 x6 | x6 | [EG]3 [EGd]3 | [EAc]6 | [G,D]2 A, B,CG, | x6 | x6 | x6 | x6 | x6 | x6 | x6 | x6 | x6 | %14
 x6 | x6 | x6 | x6 | x2 [B,=DA] z!p! z/ [B,DA]/[B,DA] | z z/!p! [B,_DG]/[B,DG] x x2 | x6 | x6 | %22
 x3 z z/!mp! [B=da]/[Bda] | z z/ [B_dg]/[Bdg] x x2 | x6 | x6 | x6 | x6 | x6 | x6 | %30
!8va(! x!8va)! x5 |!8va(! x!8va)! x5 |!8va(! x!8va)! x5 | x3!8va(! x3 | x2!8va)! x4 | x6 | x6 | %37
 x6 | [EG]3 [EGd]3 | [EAc]6 | [G,D]2 A, B,CG, | A, =A,B, [CE]DA, | B,CD [EG]FC | D=DE [FA]=GD | %44
 x6 | x5!8va(! x | x2!8va)! x4 |[K:bass] x6 | x6 |[K:treble] x6 | x6 | x6 | x6 | x6 | x6 | x6 | %56
 x6 | x6 | x6 | x6 | x6 | x6 | x2 =EF z D |A z FG z =E- | E2 F x x2 | A2 B A F2 | [FA] x x4 | x6 | %68
 x6 | x6 | x6 | x6 | x6 | x6 | x6 | x6 | x6 | x6 | x6 | x6 | x6 | x6 | x6 | x6 | x6 | x6 | x6 | %87
 x2 [_G,C]- [G,C]3 | DCB, A, x2 | x2 [_G,C]- [G,C]3 | [F,D]2[K:bass] [F,D]- [F,D]3- | %91
 [F,D] x F,- F,3 | =E, x [F,=B,]- [F,B,]3 | =E, x F,- F,3 | x6 | x6 |[K:treble] x6 | x6 | %98
 x3 x2 [=B,=D] | x _D4 [DE-] | [CE] x x F2 ^F | G F4 [FG-] | [=EG] x x4 | x6 | x6 | x6 | x6 | x6 | %108
 x6 | x6 | x6 | x6 | x6 | x6 | x6 | x6 | x6 | x6 | x6 | x6 | x6 | x6 | x6 | x6 | x6 | x6 | x6 | %127
 x6 | x6 | x6 | x3!8va(! x3 | x6!8va)! | x6 | x6 | x6 | x3 d3 | x3 d3 | x2 F4 | [FA]3 [DG]3 | %139
 x3!8va(! d'3 | x3!8va)! d3 | x F2- F3 | [FA]3 x3 | x6 | x6 | x6 | x6 |[K:Ab] x6 | x6 | x6 | x6 | %151
 x6 | x6 | x6 | x2 C!pp!D x B, |_F x D!pp!E x C ||[K:E] x x x4 | x6 | x6 | x6 | x6 | x6 | x6 | x6 | %164
 x6 | x6 | x6 | x6 | x6 | x6 | x6 | x6 | x9/2!8va(! x3/2 | x4!8va)! x2 | x6 | x6 | x6 | %177
 x3/2!8va(! x9/2 | x6 | x6!8va)! | x6 | x6 | x6 | x6 | x6 | x2[K:bass] G,- G,3 | =G,2 E, G,2 E, | %187
 =G,3 G,[F,A,][E,G,] | [B,,F,] x[K:treble] x4 | ^G, x x4 | x6 | D3 x x2 | x6 || %193
[K:Ab] x2[K:bass] =A, A,3 | _A,2 F, A,2 F, | A,3 A,[G,_B,][F,A,] | [C,G,] x2[K:treble] _D3 | %197
 [C^F]3 x x2 | x6 | C3 x3 | x2 C2 x C- | C x x4 | x6 | x6 | E3 E3- | E3- x3 | x6 | x6 | x6 | x6 | %210
 x6 | x6 |!8va(! e[gb_d'] x4 | c'[e'a'] x e'[a'c''] x | %214
 [_d'_d''][c'c''][bb']{/c''} [bg'b'][=a^f'=a'][bg'b'] | x3!8va)! x3 | E!<(![Gd][Fd] x x2 | %217
 c[ea]!<)! x e!f![ac'] x | [_d_d'][cc'][Bb]{/c'} [Bgb][=A^f=a][Bgb] | x3 e[ac'] z | %220
 [_d_d'][cc'][Bb]{/c'} [Bgb][=A^f=a][Bgb] | x5/2!8va(! x7/2 | x2!8va)! x4 | x6 | x6 | x6 | x6 | %227
 x6 | x6 | x6 | x6 | x6 | x6 | x6 | x6 | x6 | x!8va(! x2!8va)! x3 | x6 | x6 | x6 | x6 |] %241
V:4
 x6 | x6 | x6 | x6 | x6 | x6 | x!pp! [CE][DE] [EA]2 E,, | A,,2 E, A,2 z | x2[K:treble] x4 | %9
[K:bass] x6 | x6 | x6 | x3/2[K:treble] x9/2 |[K:bass] x6 | x6 | x6 | x6 | x6 | x6 | x6 | x6 | x6 | %22
 x6 | x6 | x6 | x6 | x6 | x6 | x6 | x6 | x6 | x6 | x6 | x3 [G,C]3 | x6 | x6 | x6 | x6 | x6 | x6 | %40
 x6 | x6 | x6 | x6 | E,6- | E,2[K:treble] x4 | x3[K:bass] x3 | x6 | x6 |[K:treble] x6 | x6 | x6 | %52
 x6 |[K:bass] x6 | x6 | x6 | x3 G,_A,G,- | C, x x4 | x6 | x6 | x3 G,_A,G,- | C, x2 G,_A,G, | x6 | %63
 x6 | x6 | x6 | x6 | x6 | x6 | x6 | x E,F, .G,.A,G, | x6 | x6 | x6 | x6 | x6 | x6 | x6 | x6 | x6 | %80
 x6 | x6 | x6 | x6 | x6 | x6 | x6 | x6 | x6 | x6 | x6 | x6 | x6 | x2 G,,,- G,,,A,,,B,,, | x3 C,,3 | %95
 C,6 | x6 | x6 | x6 |{/E,,} E,6 |{/A,,} A,6 | G,6 | [C,G,] x x4 | x6 |[K:bass] x6 | x6 | x6 | %107
 x3 G,_A,G,- | C, x x4 | x6 | x6 | x3 G,_A,G,- | C, x2 G,A,G,- | C,2 x4 | x6 | x6 | x3 E,3 | x6 | %118
 x6 | x6 | x3 B,,3 | x6 | x3[K:treble] x3 |[K:bass] x6 | x6 | x3 [_G,A,C]3- | [G,A,C]6 | x6 | x6 | %129
 x3[K:treble] D2 =A, | B,3 C3 |[K:bass] x2[K:treble] x4 | x6 |[K:bass] x6 | x6 | x6 | x6 | x6 | %138
 x6 | x6 | x6 | x6 | x3 E,,/B,,/E,/G,/E,/B,,/ | A,, x x4 | x6 | x6 | x6 |[K:Ab] x6 | x3 E,_F,E,- | %149
 A,, x x4 | x6 | x6 | x3 E,_F,E,- | A,, x2 E,_F,E, | x6 | x6 || %156
[K:E][I:staff -1] E[I:staff +1] x[I:staff -1] [G,C]- [G,C]2 [CE]- | [CE][CE][^B,F] [G,C]CC | %158
 [CE][I:staff +1] x[I:staff -1] E- E2 E- | EE[EF] [^DA]^A,[A,B,D] | %160
 [G,B,E][I:staff +1] x[I:staff -1] [G,^B,F][I:staff +1] x2[I:staff -1] [G,CE]- | %161
 [G,CE][I:staff +1] x[I:staff -1] [CE]- [CE][CE]E | %162
 E[I:staff +1]x[I:staff -1]G G[I:staff +1] x[I:staff -1] [EG] | %163
[DG][I:staff +1] x[I:staff -1] [D-G-B] [DG^A][I:staff +1] x[I:staff -1] [CD^^FA] | x6 | %165
[I:staff +1] x3 C,3 | x6 | x3 C,3 | x6 | x6 | x6 | x6 | x5[K:treble] x | %173
[K:bass] x2[K:treble] x[K:bass] x3 | x6 | x6 | x6 | x2[K:treble] x[K:bass] x2[K:treble] x | %178
[K:bass] x[K:treble] x[K:bass] x2[K:treble] x[K:bass] x | x6 | x6 | x6 | x6 | x6 | x6 | x6 | x6 | %187
 x6 | x6 | x6 | x6 | x6 | x6 ||[K:Ab] x6 | x6 | x6 | x6 | x6 | x6 | x6 | x6 | x6 | x6 | %203
 x3 ^C,,/=D,,/=D,/D,,/E,/E,,/ | =D,,/E,,/E,/E,,/E,/E,,/ x3 | x6 | x6 | x6 | x6 | x6 | x6 | x6 | %212
 x[K:treble] x5 |[K:bass] x[K:treble] x5 |[K:bass] x6 | x6 | x6 | x6 | x6 | x6 | x6 | x6 | x6 | %223
 x6 | x6 | x6 | x6 | x6 | x6 | x6 | x6 | A,, z E,- E,3 | x6 | A,, z E,- E,3 | x6 | %235
 x2[K:treble] x4 | x6 |[K:bass] x6 | x6 | x6 | x6 |] %241
V:5
 x6 | x6 | x6 | x6 | x6 | x6 | x6 | x6 | x2[K:treble] x4 |[K:bass] x6 | x6 | x6 | %12
 x3/2[K:treble] x9/2 |[K:bass] x6 | x6 | x6 | x6 | x6 | x6 | x6 | x6 | x6 | x6 | x6 | x6 | x6 | %26
 x6 | x6 | x6 | x6 | x6 | x6 | x6 | x6 | x6 | x6 | x6 | x6 | x6 | x6 | x6 | x6 | x6 | x6 | x6 | %45
 x2[K:treble] x4 | x3[K:bass] x3 | x6 | x6 |[K:treble] x6 | x6 | x6 | x6 |[K:bass] x6 | x6 | x6 | %56
 x3 C,3 | x6 | x6 | x6 | x3 C,3 | x3 C,3 | x6 | x6 | x6 | x6 | x6 | x6 | x6 | x6 | x6 | x6 | x6 | %73
 x6 | x6 | x6 | x6 | x6 | x6 | x6 | x6 | x6 | x6 | x6 | x6 | x6 | x6 | x6 | x6 | x6 | x6 | x6 | %92
 x6 | x6 | x6 | x6 | x6 | x6 | x6 | x6 | x6 | x6 | x6 | x6 |[K:bass] x6 | x6 | x6 | x3 C,3 | x6 | %109
 x6 | x6 | x3 C,3 | x3 C,3 | x6 | x6 | x6 | x6 | x6 | x6 | x6 | x6 | x6 | x3[K:treble] x3 | %123
[K:bass] x6 | x6 | x6 | x6 | x6 | x6 | x3[K:treble] x3 | x6 |[K:bass] x2[K:treble] x4 | x6 | %133
[K:bass] x6 | x6 | x6 | x6 | x6 | x6 | x6 | x6 | x6 | x6 | x6 | x6 | x6 | x6 |[K:Ab] x6 | x3 A,,3 | %149
 x6 | x6 | x6 | x3 A,,3 | x3 A,,3 | x6 | x6 ||[K:E] x6 | x6 | x6 | x6 | x6 | x6 | x6 | x6 | x6 | %165
 x6 | x6 | x6 | x6 | x6 | x6 | x6 | x5[K:treble] x |[K:bass] x2[K:treble] x[K:bass] x3 | x6 | x6 | %176
 x6 | x2[K:treble] x[K:bass] x2[K:treble] x | %178
[K:bass] x[K:treble] x[K:bass] x2[K:treble] x[K:bass] x | x6 | x6 | x6 | x6 | x6 | x6 | x6 | x6 | %187
 x6 | x6 | x6 | x6 | x6 | x6 ||[K:Ab] x6 | x6 | x6 | x6 | x6 | x6 | x6 | x6 | x6 | x6 | x6 | x6 | %205
 x6 | x6 | x6 | x6 | x6 | x6 | x6 | x[K:treble] x5 |[K:bass] x[K:treble] x5 |[K:bass] x6 | x6 | %216
 x6 | x6 | x6 | x6 | x6 | x6 | x6 | x6 | x6 | x6 | x6 | x6 | x6 | x6 | x6 | x6 | x6 | x6 | x6 | %235
 x2[K:treble] x4 | x6 |[K:bass] x6 | x6 | x6 | x6 |] %241

